X: 3
T: The Diplodocus
R: jig
M: 6/8
L: 1/8
K: Amix
|:B|cAA edB|cAA ABc|def gfg|aee fed |
ceA BAG|EAA AGE|DEF FGA|BAA A2 :|
|:z|efe e2d|cAB AGE|gag gef|gag fed |
efd eBd|cAB AGE|DEF FGA|BAA A2 :|
|:z|aAA Aaf|~g3 efg|fdd def|~g3 efg |
aAA Aaf|~g3 efg|fed efd|cAA A2 :|


Tune 620	Setting 22648

